Papirus/64x64/apps/tuxedo-webfai-creator.svg

<svg width="64" height="64" version="1.1" xmlns="http://www.w3.org/2000/svg">
 <rect x="12.99998" y="22.00001" width="37.999958" height="37.999958" ry="2.6061908" style="opacity:.2"/>
 <rect x="12.99998" y="21.000012" width="37.999958" height="37.999958" ry="2.6061908" style="fill:#c2352a"/>
 <path d="m32.610983 25.015459c-1.459572 0.247403-5.869221 4.600526-6.389417 6.276884 0 0.951283 5.710292 6.598369 6.715085 6.598369 0.423236 0 0.864627-0.230071 1.120415-0.452516 0.4492-0.390615 0.723345-1.135201 0.608129-1.650013-0.0644-0.28791-0.513096-0.86175-1.273664-1.628818l-1.172749-1.18383 1.008242 0.09676c4.13733 0.396855 7.730832 3.421549 8.918084 7.503499 0.456097 1.568107 0.458531 3.917345 6e-3 5.47228-1.329345 4.567347-5.36576 7.58283-10.150267 7.58283-5.599539 0-10.003306-4.058676-10.496726-9.67387-0.01604-1.374582-0.441813-2.104708-1.769637-2.104708-1.241817 0-1.637061 0.826294-1.722763 1.877806-0.0857 1.05072 0.308122 2.877619 0.824058 4.258143 1.695176 4.535754 5.616476 7.854895 10.417617 8.816973 1.262406 0.252949 4.066841 0.260972 5.374178 0.01545 9.772975-1.835515 14.539733-12.899022 9.066567-21.040242-2.304321-3.42759-6.274709-5.769005-10.356155-6.108812l-1.047898-0.08706 1.148915-1.168379c0.839981-0.854422 1.203784-1.296736 1.243947-1.667445 0.122214-1.127079-1.286342-1.866416-2.071961-1.733306z" style="opacity:.2"/>
 <path d="m32.610983 24.015448c-1.459572 0.247403-5.869221 4.600526-6.389417 6.276884 0 0.951283 5.710292 6.598369 6.715085 6.598369 0.423236 0 0.864627-0.230071 1.120415-0.452516 0.4492-0.390615 0.723345-1.135201 0.608129-1.650013-0.0644-0.28791-0.513096-0.86175-1.273664-1.628818l-1.172749-1.18383 1.008242 0.09676c4.13733 0.396855 7.730832 3.421549 8.918084 7.503499 0.456097 1.568107 0.458531 3.917345 6e-3 5.47228-1.329345 4.567347-5.36576 7.58283-10.150267 7.58283-5.599539 0-10.003306-4.058676-10.496726-9.67387-0.01604-1.374582-0.441813-2.104708-1.769637-2.104708-1.241817 0-1.637061 0.826294-1.722763 1.877806-0.0857 1.05072 0.308122 2.877619 0.824058 4.258143 1.695176 4.535754 5.616476 7.854895 10.417617 8.816973 1.262406 0.252949 4.066841 0.260972 5.374178 0.01545 9.772975-1.835515 14.539733-12.899022 9.066567-21.040242-2.304321-3.42759-6.274709-5.769005-10.356155-6.108812l-1.047898-0.08706 1.148915-1.168379c0.839981-0.854422 1.203784-1.296736 1.243947-1.667445 0.122214-1.127079-1.286342-1.866416-2.071961-1.733306z" style="fill:#ececec"/>
 <rect x="19.999971" y="4" width="23.999973" height="16.999983" style="fill:#b3b3b3"/>
 <path d="m26 7.00003h3v4.99997h-3z" style="fill:#666666"/>
 <path d="m35 7.00003h3v4.99997h-3z" style="fill:#666666"/>
 <path d="m15.6054 21c-1.4438 0-2.6054 1.1616-2.6054 2.6055v1c0-1.4439 1.1616-2.6055 2.6054-2.6055h32.7891c1.4438 0 2.6054 1.1616 2.6054 2.6055v-1c0-1.4439-1.1616-2.6055-2.6054-2.6055h-32.7891z" style="fill:#ffffff;opacity:.2"/>
 <path d="m20 4.00003v1h23.9999v-1h-23.9999z" style="fill:#ffffff;opacity:.2"/>
 <rect x="26" y="7" width="3" height="1" style="opacity:.2"/>
 <rect x="35" y="7" width="3" height="1" style="opacity:.2"/>
</svg>

<svg xmlns="http://www.w3.org/2000/svg" width="64" height="64" version="1.1">
 <rect style="fill:#b3b3b3" width="24" height="18" x="20" y="4"/>
 <rect style="opacity:0.2" width="38" height="38" x="13" y="22" ry="2.606"/>
 <rect style="fill:#c2352a" width="38" height="38" x="13" y="21" ry="2.606"/>
 <path style="opacity:0.1" d="M 32.611,25.015 C 31.151,25.263 26.742,29.616 26.222,31.292 26.222,32.244 31.932,37.891 32.937,37.891 33.36,37.891 33.801,37.661 34.057,37.438 34.506,37.048 34.78,36.303 34.665,35.788 34.601,35.5 34.152,34.926 33.392,34.159 L 32.219,32.976 33.227,33.072 C 37.364,33.469 40.958,36.494 42.145,40.576 42.601,42.144 42.604,44.493 42.151,46.048 40.822,50.615 36.785,53.631 32.001,53.631 26.401,53.631 21.998,49.572 21.504,43.957 21.488,42.582 21.062,41.852 19.734,41.852 18.493,41.852 18.097,42.679 18.012,43.73 17.926,44.781 18.32,46.608 18.836,47.988 20.531,52.524 24.452,55.843 29.253,56.805 30.516,57.058 33.32,57.066 34.628,56.821 44.401,54.985 49.167,43.922 43.694,35.78 41.39,32.353 37.419,30.011 33.338,29.672 L 32.29,29.585 33.439,28.416 C 34.279,27.562 34.643,27.119 34.683,26.749 34.805,25.622 33.397,24.882 32.611,25.015 Z"/>
 <path style="fill:#ececec" d="M 32.611,24.015 C 31.151,24.263 26.742,28.616 26.222,30.292 26.222,31.244 31.932,36.891 32.937,36.891 33.36,36.891 33.801,36.661 34.057,36.438 34.506,36.048 34.78,35.303 34.665,34.788 34.601,34.5 34.152,33.926 33.392,33.159 L 32.219,31.976 33.227,32.072 C 37.364,32.469 40.958,35.494 42.145,39.576 42.601,41.144 42.604,43.493 42.151,45.048 40.822,49.615 36.785,52.631 32.001,52.631 26.401,52.631 21.998,48.572 21.504,42.957 21.488,41.582 21.062,40.852 19.734,40.852 18.493,40.852 18.097,41.679 18.012,42.73 17.926,43.781 18.32,45.608 18.836,46.988 20.531,51.524 24.452,54.843 29.253,55.805 30.516,56.058 33.32,56.066 34.628,55.821 44.401,53.985 49.167,42.922 43.694,34.78 41.39,31.353 37.419,29.011 33.338,28.672 L 32.29,28.585 33.439,27.416 C 34.279,26.562 34.643,26.119 34.683,25.749 34.805,24.622 33.397,23.882 32.611,24.015 Z"/>
 <path style="fill:#666666" d="M 26,7 H 29 V 12 H 26 Z"/>
 <path style="fill:#666666" d="M 35,7 H 38 V 12 H 35 Z"/>
 <path style="opacity:0.1;fill:#ffffff" d="M 15.605,21 C 14.162,21 13,22.162 13,23.605 V 24.605 C 13,23.162 14.162,22 15.605,22 H 48.394 C 49.838,22 51,23.162 51,24.605 V 23.605 C 51,22.162 49.838,21 48.394,21 Z"/>
 <path style="opacity:0.2;fill:#ffffff" d="M 20,4 V 5 H 44 V 4 Z"/>
 <rect style="opacity:0.2" width="3" height="1" x="26" y="7"/>
 <rect style="opacity:0.2" width="3" height="1" x="35" y="7"/>
</svg>
